build/assets/images/content/money.svg

<svg width="488" height="347" fill="none" xmlns="http://www.w3.org/2000/svg"><path d="M352.8 113.3H23.3C10.4 113.3 0 123.7 0 136.6v186.3c0 12.9 10.4 23.3 23.3 23.3h329.5c12.9 0 23.3-10.4 23.3-23.3V136.6c0-12.9-10.5-23.3-23.3-23.3zm-4.5 166.5c-1.9-.3-3.8-.5-5.8-.5-18.2 0-33 14.8-33 33 0 2.1.2 4.1.6 6.1H68.7c.2-1.3.3-2.7.3-4.1 0-18.2-14.8-33-33-33-2.8 0-5.6.4-8.2 1V181.1c2.6.7 5.3 1 8.2 1 18.2 0 33-14.8 33-33 0-2.8-.4-5.5-1-8h242.1c-.4 2-.6 4-.6 6.1 0 18.2 14.8 33 33 33 2 0 3.9-.2 5.8-.5v100.1zm83.4-190.7v168.1c0 3.1-.4 6.1-1.3 9-4.3 14.8-26.5 11.1-26.5-4.3V99.5c0-8.2-6.7-14.9-14.9-14.9H83.2c-15.4 0-19.1-22.2-4.3-26.5 2.9-.8 5.9-1.3 9-1.3h311.3c18-.1 32.5 14.4 32.5 32.3zm56-56.7v168.1c0 3.1-.4 6.1-1.3 9-4.3 14.8-26.5 11.1-26.5-4.3V42.7c0-8.2-6.7-14.9-14.9-14.9H139.1c-15.4 0-19.1-22.2-4.3-26.5 2.9-.8 5.9-1.3 9-1.3h311.3c18.1 0 32.6 14.5 32.6 32.4zM309.8 229.5c0 10.9-8.8 19.7-19.7 19.7-10.9 0-19.7-8.8-19.7-19.7 0-10.9 8.8-19.7 19.7-19.7 10.9 0 19.7 8.8 19.7 19.7zm-206.5 0c0 10.9-8.8 19.7-19.7 19.7-10.9 0-19.7-8.8-19.7-19.7 0-10.9 8.8-19.7 19.7-19.7 10.9 0 19.7 8.8 19.7 19.7zm83.6-71c-39.2 0-71 31.8-71 71s31.8 71 71 71 71-31.8 71-71-31.8-71-71-71zm0 112.1c-22.7 0-41.1-18.4-41.1-41.1 0-22.7 18.4-41.1 41.1-41.1 22.7 0 41.1 18.4 41.1 41.1 0 22.7-18.5 41.1-41.1 41.1z" fill="#fff"/></svg>

<svg width="488" height="347" viewBox="0 0 488 347" fill="none" xmlns="http://www.w3.org/2000/svg">
<path d="M352.8 113.3H23.3C10.4 113.3 0 123.7 0 136.6V322.9C0 335.8 10.4 346.2 23.3 346.2H352.8C365.7 346.2 376.1 335.8 376.1 322.9V136.6C376.1 123.7 365.6 113.3 352.8 113.3ZM348.3 279.8C346.4 279.5 344.5 279.3 342.5 279.3C324.3 279.3 309.5 294.1 309.5 312.3C309.5 314.4 309.7 316.4 310.1 318.4H68.7C68.9 317.1 69 315.7 69 314.3C69 296.1 54.2 281.3 36 281.3C33.2 281.3 30.4 281.7 27.8 282.3V181.1C30.4 181.8 33.1 182.1 36 182.1C54.2 182.1 69 167.3 69 149.1C69 146.3 68.6 143.6 68 141.1H310.1C309.7 143.1 309.5 145.1 309.5 147.2C309.5 165.4 324.3 180.2 342.5 180.2C344.5 180.2 346.4 180 348.3 179.7V279.8ZM431.7 89.1V257.2C431.7 260.3 431.3 263.3 430.4 266.2C426.1 281 403.9 277.3 403.9 261.9V251.6V99.5C403.9 91.3 397.2 84.6 389 84.6H93.2H83.4H83.2C67.8 84.6 64.1 62.4 78.9 58.1C81.8 57.3 84.8 56.8 87.9 56.8H399.2C417.2 56.7 431.7 71.2 431.7 89.1ZM487.7 32.4V200.5C487.7 203.6 487.3 206.6 486.4 209.5C482.1 224.3 459.9 220.6 459.9 205.2V194.9V42.7C459.9 34.5 453.2 27.8 445 27.8H149.1H139.3H139.1C123.7 27.8 120 5.6 134.8 1.3C137.7 0.500003 140.7 0 143.8 0H455.1C473.2 0 487.7 14.5 487.7 32.4ZM309.8 229.5C309.8 240.4 301 249.2 290.1 249.2C279.2 249.2 270.4 240.4 270.4 229.5C270.4 218.6 279.2 209.8 290.1 209.8C301 209.8 309.8 218.6 309.8 229.5ZM103.3 229.5C103.3 240.4 94.5 249.2 83.6 249.2C72.7 249.2 63.9 240.4 63.9 229.5C63.9 218.6 72.7 209.8 83.6 209.8C94.5 209.8 103.3 218.6 103.3 229.5ZM186.9 158.5C147.7 158.5 115.9 190.3 115.9 229.5C115.9 268.7 147.7 300.5 186.9 300.5C226.1 300.5 257.9 268.7 257.9 229.5C257.9 190.3 226.1 158.5 186.9 158.5ZM186.9 270.6C164.2 270.6 145.8 252.2 145.8 229.5C145.8 206.8 164.2 188.4 186.9 188.4C209.6 188.4 228 206.8 228 229.5C228 252.2 209.5 270.6 186.9 270.6Z" fill="white"/>
</svg>
